src/lib/packages/icons/src/assets/filled/chart-pie.svg

<svg width="24" height="24" viewBox="0 0 24 24" fill="none" xmlns="http://www.w3.org/2000/svg">
<path d="M20.944 10.819C20.706 11.093 20.361 11.2501 20 11.2501H13.992C13.307 11.2501 12.75 10.6931 12.75 10.0081V4.00005C12.75 3.63805 12.907 3.2941 13.182 3.0551C13.453 2.8201 13.817 2.71301 14.162 2.76201C17.817 3.27301 20.726 6.18206 21.238 9.83806C21.287 10.1901 21.18 10.548 20.944 10.819ZM18.981 13.6031C18.75 13.3201 18.408 13.157 18.043 13.157H12.092C11.403 13.157 10.842 12.596 10.842 11.907V5.95611C10.842 5.59211 10.68 5.25 10.397 5.018C10.123 4.794 9.76698 4.705 9.42498 4.773C7.27298 5.206 5.339 6.51101 4.122 8.35601C2.891 10.221 2.46902 12.4791 2.93402 14.7121C3.58902 17.8561 6.14198 20.408 9.28698 21.064C9.87998 21.188 10.475 21.2491 11.064 21.2491C12.692 21.2491 14.273 20.7821 15.642 19.8781C17.487 18.6601 18.792 16.727 19.225 14.575C19.296 14.232 19.207 13.8771 18.981 13.6031Z" fill="currentColor"/>
</svg>

<svg xmlns="http://www.w3.org/2000/svg" width="24" height="24" fill="none"><path fill="currentColor" d="M20.944 10.819a1.252 1.252 0 0 1-.944.431h-6.008a1.243 1.243 0 0 1-1.242-1.242V4a1.251 1.251 0 0 1 1.412-1.238 8.341 8.341 0 0 1 7.076 7.076c.049.352-.058.71-.294.981Zm-1.963 2.784a1.207 1.207 0 0 0-.938-.446h-5.951c-.689 0-1.25-.561-1.25-1.25v-5.95a1.21 1.21 0 0 0-.445-.939 1.174 1.174 0 0 0-.972-.245 8.38 8.38 0 0 0-5.303 3.583c-1.231 1.865-1.653 4.123-1.188 6.356.655 3.144 3.208 5.696 6.353 6.352a8.679 8.679 0 0 0 1.777.185 8.272 8.272 0 0 0 4.578-1.37 8.383 8.383 0 0 0 3.583-5.304 1.155 1.155 0 0 0-.244-.972Z"/></svg>
